X: 1
T: Black Coffee
C: Jonathan Jensen
N: Baltimore, Maryland
B: "Gems - The Best of the Country Dance and Song Society", CDSS, 1993, p.66
Z: 2011 John Chambers <jc:trillian.mit.edu>
R: jig
M: 6/8
L: 1/8
K: Dm
A |\
"Dm"d2e dcA | "Gm"G2A GFD | "Dm"F2D "Dm/C"F2A | "Gm/Bb"ded "A"^c2A | "Dm"d2e dcA | "Gm"G2A "(G7)"GFD |
"F"C2A "C7"GFD | "F"F3- F2 :: A | "F"c2d "F/E"c2d | "F/D"c2d "F/C"cAF | "Bb"f2g "Bb/A"f2g | "Bb/G"f2g "C7"fed |
"F"c2d "F/E"c2d | "F/D"c2d "F/C"cAF |1 "Gm/Bb"G2A "C"GFD | "F"F3- F2 :|2 "Gm"G2A "A7"GFE | "Dm"D3- D2 |]
